!!!OTL: Bandyrowe
!! From: "Folk Songs of the Southern Appalachians;
!! As Sung by Jean Ritchie"  2nd Edition.
!! University of Kentucky Press, 1997.
**kern
*clefG2
*k[]
*C:
*M6/8
{8c
=1
4c
8c
4e
8e
=2
4f
8f
4.g}
=3
{8e
8e
8e
4.c}
=4
{8d
8d
4.c}
=5
{4c
8c
4e
8e
=6
4f
8f
4.g}
=7
{8cc
8cc
8cc
4cc
8a
=8
4.g}
4.r
=9
{4cc
8b
4cc
8b
=10
4cc
8b
4.cc}
=11
{4cc
8b
4cc
8b
=12
8cc
4b
4.cc}
=13
{8cc
8cc
8cc
4cc
8a
=14
2.g}
=15
{8e
8d
8c
4.d
=16
[4.c
4c]}
==
*-
